stoic/img/Hoobe.svg

<svg width="34.622437" height="35.000000" viewBox="0 0 34.6224 35" fill="none" xmlns="http://www.w3.org/2000/svg" xmlns:xlink="http://www.w3.org/1999/xlink">
	<desc>
			Created with Pixso.
	</desc>
	<defs/>
	<mask id="mask0_69" mask-type="alpha" maskUnits="userSpaceOnUse" x="0.000000" y="0.000000" width="34.622437" height="35.000000">
		<path id="Clip 2" d="M0 0L34.62 0L34.62 35L0 35L0 0Z" fill="#000000" fill-opacity="1.000000" fill-rule="evenodd"/>
	</mask>
	<g mask="url(#mask0_69)">
		<path id="Fill 1" d="M34.6224 17.5C34.6224 27.165 26.8719 35 17.3113 35C7.75049 35 0 27.165 0 17.5C0 7.83504 7.75049 0 17.3113 0C26.8719 0 34.6224 7.83504 34.6224 17.5ZM16.9454 8.10664C17.8995 8.10228 18.8453 8.17587 19.7824 8.32741C20.7194 8.4789 21.6479 8.70834 22.568 9.0157C22.8938 9.13345 23.1785 9.25642 23.4218 9.38454C23.6654 9.5127 23.8986 9.68411 24.1216 9.89882C24.3256 10.1135 24.4954 10.3525 24.6308 10.6157C24.7663 10.8789 24.8674 11.1663 24.9343 11.4781C22.839 12.0426 20.4794 12.3248 17.8558 12.3248C14.9271 12.3248 12.1852 11.9491 9.63025 11.1975C9.68774 10.9153 9.78973 10.6434 9.9364 10.382C10.083 10.1205 10.2708 9.8694 10.4996 9.62868C10.6617 9.46075 10.8426 9.317 11.0424 9.19753C11.2421 9.07805 11.4608 8.98282 11.6982 8.91182C12.5248 8.63908 13.3752 8.43565 14.2498 8.30144C15.1243 8.16724 16.0228 8.10228 16.9454 8.10664ZM17.7477 14.0754C14.5858 14.0201 11.7703 13.6218 9.30109 12.8806C9.2702 13.1819 9.25476 13.5646 9.25476 14.0287C9.25476 14.7629 9.31482 15.4417 9.43481 16.065C11.6194 16.8166 14.4315 17.2253 17.8713 17.291C20.3028 17.291 22.7309 16.9811 25.1555 16.3612C25.2687 15.7343 25.3245 15.1006 25.3231 14.4598C25.3245 13.9924 25.2995 13.5594 25.2482 13.1612C22.8611 13.7707 20.3611 14.0754 17.7477 14.0754ZM10.0109 17.9196C12.2984 18.5534 14.9493 18.8927 17.9639 18.9378C20.1142 18.969 22.4016 18.7075 24.8262 18.1533C24.6475 18.6738 24.4307 19.1995 24.1764 19.7305C23.9456 20.2126 23.6768 20.6999 23.3705 21.1924C21.6008 21.5214 19.7798 21.6859 17.9073 21.6859C15.3352 21.6443 13.197 21.414 11.4925 20.9949C11.1669 20.4684 10.8773 19.9421 10.6237 19.4157C10.3834 18.9169 10.1791 18.4183 10.0109 17.9196ZM17.8045 23.4417C16.1479 23.4417 14.4778 23.317 12.7939 23.0676C13.2913 23.6737 13.7748 24.2096 14.2445 24.6756C15.589 25.9516 16.5475 26.775 17.1202 27.1456C17.933 26.6572 18.762 26.0546 19.6074 25.3378C20.3817 24.6814 21.1011 23.9698 21.7654 23.2027C20.452 23.3621 19.1316 23.4417 17.8045 23.4417Z" clip-rule="evenodd" fill="#FFFFFF" fill-opacity="1.000000" fill-rule="evenodd"/>
	</g>
</svg>

<svg width="34.622" height="35" fill="none" xmlns="http://www.w3.org/2000/svg"><mask id="a" maskUnits="userSpaceOnUse" x="0" y="0" width="34.622" height="35"><path d="M0 0h34.62v35H0V0z" fill="#000" fill-rule="evenodd"/></mask><g mask="url(#a)"><path d="M34.622 17.5c0 9.665-7.75 17.5-17.31 17.5C7.75 35 0 27.165 0 17.5S7.75 0 17.311 0c9.56 0 17.311 7.835 17.311 17.5zM16.945 8.107c.954-.005 1.9.069 2.837.22.937.152 1.866.381 2.786.689.326.117.61.24.854.369.243.128.477.3.7.514.204.215.373.454.509.717.135.263.236.55.303.862-2.095.565-4.455.847-7.078.847-2.929 0-5.67-.376-8.226-1.127.058-.283.16-.555.306-.816a3.78 3.78 0 01.564-.753 2.62 2.62 0 01.542-.431c.2-.12.419-.215.656-.286a15.753 15.753 0 012.552-.61c.874-.135 1.773-.2 2.695-.195zm.803 5.968c-3.162-.055-5.978-.453-8.447-1.194-.03.3-.046.684-.046 1.148 0 .734.06 1.413.18 2.036 2.184.752 4.996 1.16 8.436 1.226 2.432 0 4.86-.31 7.285-.93.113-.627.169-1.26.167-1.901.002-.468-.024-.9-.075-1.299-2.387.61-4.887.914-7.5.914zM10.01 17.92c2.287.633 4.938.973 7.953 1.018 2.15.031 4.438-.23 6.862-.785-.178.52-.395 1.047-.65 1.578-.23.482-.5.969-.805 1.461a29.83 29.83 0 01-5.464.494c-2.572-.042-4.71-.272-6.415-.691a17.187 17.187 0 01-.868-1.58c-.24-.498-.445-.997-.613-1.495zm7.794 5.522a34.16 34.16 0 01-5.011-.374c.497.606.98 1.142 1.45 1.608 1.345 1.276 2.303 2.099 2.876 2.47a19.034 19.034 0 002.487-1.808 19.713 19.713 0 002.158-2.135c-1.313.16-2.633.239-3.96.239z" clip-rule="evenodd" fill="#FFF" fill-rule="evenodd"/></g></svg>
